X:5
T:
O:Macedoine de l'est
M:2/4
L:1/8
Q:1/4=100
P:AA BBB CCC
K:C
P:A
|: {G} A2 A2 | {d} ee ed | d2 cB | cB A2 |
G2 {B} c2 | cB BA | G2 A2 | A2 A2 :|
G2 {B} c2 | cB BA | G2 A2 | A2 A2 ||
P:B
|: {d} e2 (3eze | (3e2d (3d2c | {c} d2 (3d2d | (3c2B A3 |
(3GAB (3cGc | (3c2B (3B2A | d2 AA | A2 A2 :|
(3GAB (3cGc | (3c2B (3B2A | d2 AA | A2 A2 ||
P:C
|: (3A2A (3ABG | (3A2A (3ABG | (3A2A (3ABG | (3A2A (3ABG |
(3A2A (3ABG | (3A2A (3ABG | (3A2A (3ABG | (3A2A (3ABG |
e4 | A2 A2 :|
